X: 1336
T: the Bottle of Porter
R: reel
O: Mrs.Cantwell
B: O'Neill's 1850 #1336
Z: Trish O'Neil
M: C|
L: 1/8
K: G
B |\
d2(3(efg) BGdB | Aaag fefd |\
gfgd ecdB | cedc BG G :: c |\
BGDG EGDB |
          | cBAB cedc |\
[1 BGDG EGDB | cedc BGG :|\
[2 Bggf eaag | fdcA BG G |]
